X:1
T:Were You There
M:4/4
L:1/4
K:D
 A, D| F2 F F| E D F3/2 E/2| D2 B, B,| A,2 D F| A2 A A| B A A3/2 F/2|\
 E2 D D| E4| A2- d3/2- B/2-| A4| B/2 A F/2 F3/4 E/4 D/2D/2| E/2 D3/2- D2|\
 B,/2 A,3/2 D G| F2 F F| E D F3/2 E/2| D2 B, B,| A,2||
